markup/public/images/phone.svg

<svg width="22" height="22" viewBox="0 0 22 22" fill="none" xmlns="http://www.w3.org/2000/svg">
<g clip-path="url(#clip0)">
<path d="M17 15.234C17.0307 15.4492 16.9693 15.6336 16.8156 15.7872L14.9716 17.6005C14.8794 17.6927 14.7872 17.7849 14.6336 17.8463C14.5106 17.9078 14.357 17.9385 14.234 17.9693C14.234 17.9693 14.2033 17.9693 14.1418 17.9693C14.1111 17.9693 14.0496 17.9693 13.9574 17.9693C13.7731 17.9693 13.4965 17.9385 13.0969 17.8771C12.6974 17.8156 12.2364 17.6619 11.6525 17.4468C11.0993 17.2009 10.4539 16.8629 9.74705 16.4019C9.04019 15.9409 8.27187 15.2955 7.47281 14.4657C6.82742 13.8203 6.30496 13.2364 5.8747 12.6525C5.44444 12.0686 5.10638 11.5461 4.86052 11.0544C4.61466 10.5626 4.39953 10.1324 4.2766 9.73286C4.1844 9.33333 4.0922 8.99527 4.06147 8.68794C4 8.41135 4 8.16548 4 8.01182C4 7.85816 4 7.76596 4 7.73522C4.03073 7.61229 4.06147 7.48936 4.12293 7.3357C4.1844 7.21277 4.2766 7.08983 4.36879 6.99764L6.21277 5.15366C6.3357 5.06147 6.48936 5 6.64303 5C6.76596 5 6.85816 5.03073 6.95035 5.0922C7.04255 5.15366 7.13475 5.24586 7.19622 5.33806L8.67139 8.13475C8.76359 8.28842 8.76359 8.44208 8.73286 8.62648C8.70213 8.81087 8.60993 8.93381 8.487 9.05674L7.81087 9.73286C7.78014 9.76359 7.78014 9.79433 7.74941 9.82506C7.74941 9.85579 7.71868 9.88653 7.71868 9.91726C7.74941 10.1017 7.84161 10.3168 7.96454 10.5626C8.08747 10.7778 8.24114 11.0544 8.487 11.3617C8.70213 11.669 9.04019 12.0378 9.47045 12.4681C9.86998 12.8983 10.2388 13.2057 10.5768 13.4515C10.8842 13.6974 11.1608 13.8511 11.3759 13.974C11.591 14.0969 11.7447 14.1584 11.8676 14.1584L12.052 14.1891C12.0827 14.1891 12.1135 14.1891 12.1442 14.1584C12.1749 14.1584 12.2057 14.1277 12.2364 14.0969L13.0355 13.2979C13.1891 13.1442 13.4043 13.0827 13.6194 13.0827C13.773 13.0827 13.896 13.1135 13.9882 13.1749L16.6312 14.7423C16.8463 14.9267 16.9385 15.0496 17 15.234Z" fill="#67717D"/>
</g>
<defs>
<clipPath id="clip0">
<rect width="13" height="13" fill="white" transform="translate(4 5)"/>
</clipPath>
</defs>
</svg>

<svg width="22" height="22" viewBox="0 0 22 22" fill="none" xmlns="http://www.w3.org/2000/svg"><g clip-path="url(#a)"><path d="M17 15.234a.62.62 0 0 1-.184.553L14.972 17.6a.961.961 0 0 1-.338.246c-.123.062-.277.093-.4.123h-.277c-.184 0-.46-.03-.86-.092-.4-.061-.86-.215-1.444-.43a13.65 13.65 0 0 1-1.906-1.045c-.707-.461-1.475-1.107-2.274-1.936-.646-.646-1.168-1.23-1.598-1.813-.43-.584-.769-1.107-1.014-1.599-.246-.491-.461-.922-.584-1.321-.093-.4-.185-.738-.216-1.045C4 8.41 4 8.165 4 8.012v-.277a2.71 2.71 0 0 1 .123-.4c.061-.122.154-.245.246-.337l1.844-1.844A.734.734 0 0 1 6.643 5a.52.52 0 0 1 .307.092.935.935 0 0 1 .246.246l1.475 2.797c.093.153.093.307.062.491-.03.185-.123.308-.246.43l-.676.677c-.03.03-.03.061-.062.092 0 .03-.03.062-.03.092.03.185.123.4.246.646.122.215.276.491.522.799.215.307.553.676.983 1.106.4.43.769.738 1.107.983.307.246.584.4.799.523.215.123.369.184.492.184l.184.031c.03 0 .062 0 .092-.03.03 0 .062-.031.092-.062l.8-.8c.153-.153.368-.214.583-.214.154 0 .277.03.37.092l2.642 1.567c.215.185.308.308.369.492z" fill="#67717D"/></g><defs><clipPath id="a"><path fill="#fff" transform="translate(4 5)" d="M0 0h13v13H0z"/></clipPath></defs></svg>
